icons/scooter.svg

<svg xmlns="http://www.w3.org/2000/svg" viewBox="0 0 24 24" fill="currentColor">
  <path d="M12 3.30005c-1.2426 0-2.25 1.00736-2.25 2.25s1.0074 2.25 2.25 2.25 2.25-1.00736 2.25-2.25c0-.20424-.0272-.40213-.0782-.59023-.0631-.09647-.1045-.20835-.1174-.32877-.3515-.7845-1.1391-1.331-2.0544-1.331Zm3.3175.5c-.6288-1.18945-1.8785-2-3.3175-2-1.439 0-2.68873.81055-3.31748 2H6c-.41421 0-.75.33579-.75.75s.33579.75.75.75h2.2582c-.00544.08263-.0082.16599-.0082.25 0 .20912.01712.41425.05003.61405-1.30462.64671-2.15001 1.99591-2.15001 3.58606v3.70004c0 2.2728 1.2337 4.1456 3.09998 5.1187v.8812c0 1.5142 1.2358 2.75 2.75 2.75s2.75-1.2358 2.75-2.75v-.9925c1.7598-1.0174 2.9-2.9148 2.9-5.0074V9.75016c0-1.42182-.7605-2.78067-1.9684-3.48329.0449-.23202.0684-.47168.0684-.71682 0-.08401-.0028-.16737-.0082-.25H18c.4142 0 .75-.33579.75-.75s-.3358-.75-.75-.75h-2.6825ZM12 9.30005c1.2838 0 2.4169-.6451 3.0929-1.62882.6338.44885 1.0571 1.23118 1.0571 2.07893v2.13634c-.0503.0267-.0985.0595-.1432.0986-1.349 1.1776-2.3763 1.815-4.0068 1.815-1.6162 0-3.09148-.6329-4.34998-1.6813V9.75016c0-.98009.4779-1.76447 1.19284-2.17566C9.5098 8.61244 10.6746 9.30005 12 9.30005ZM7.68253 13.9984c.18308 1.5217 1.12608 2.7335 2.48997 3.3519.5777.1912 1.1676.3499 1.7275.3499.6388 0 1.2089-.093 1.6646-.3209l.0153-.0076.0155-.0069c1.4212-.6316 2.4016-1.9951 2.5382-3.5426-1.1663.8873-2.3937 1.4779-4.1336 1.4779-1.596 0-3.05149-.4941-4.31747-1.3017Zm5.56747 5.066c-.4532.1005-.9129.1358-1.35.1358-.3961 0-.7851-.0537-1.15-.132v.3819c0 .6858.5642 1.25 1.25 1.25s1.25-.5642 1.25-1.25v-.3857Z"/>
</svg>

<svg width="24" height="24" viewBox="0 0 24 24" fill="none" xmlns="http://www.w3.org/2000/svg">
<path fill-rule="evenodd" clip-rule="evenodd" d="M12 3.30005C10.7574 3.30005 9.75 4.30741 9.75 5.55005C9.75 6.79269 10.7574 7.80005 12 7.80005C13.2426 7.80005 14.25 6.79269 14.25 5.55005C14.25 5.34581 14.2228 5.14792 14.1718 4.95982C14.1087 4.86335 14.0673 4.75147 14.0544 4.63105C13.7029 3.84655 12.9153 3.30005 12 3.30005ZM15.3175 3.80005C14.6887 2.6106 13.439 1.80005 12 1.80005C10.561 1.80005 9.31127 2.6106 8.68252 3.80005H6C5.58579 3.80005 5.25 4.13584 5.25 4.55005C5.25 4.96426 5.58579 5.30005 6 5.30005H8.2582C8.25276 5.38268 8.25 5.46604 8.25 5.55005C8.25 5.75917 8.26712 5.9643 8.30003 6.1641C6.99541 6.81081 6.15002 8.16001 6.15002 9.75016V13.4502C6.15002 15.723 7.38372 17.5958 9.25 18.5689V19.4501C9.25 20.9643 10.4858 22.2001 12 22.2001C13.5142 22.2001 14.75 20.9643 14.75 19.4501V18.4576C16.5098 17.4402 17.65 15.5428 17.65 13.4502V9.75016C17.65 8.32834 16.8895 6.96949 15.6816 6.26687C15.7265 6.03485 15.75 5.79519 15.75 5.55005C15.75 5.46604 15.7472 5.38268 15.7418 5.30005H18C18.4142 5.30005 18.75 4.96426 18.75 4.55005C18.75 4.13584 18.4142 3.80005 18 3.80005H15.3175ZM12 9.30005C13.2838 9.30005 14.4169 8.65495 15.0929 7.67123C15.7267 8.12008 16.15 8.90241 16.15 9.75016V11.8865C16.0997 11.9132 16.0515 11.946 16.0068 11.9851C14.6578 13.1627 13.6305 13.8001 12 13.8001C10.3838 13.8001 8.90852 13.1672 7.65002 12.1188V9.75016C7.65002 8.77007 8.12792 7.98569 8.84286 7.5745C9.5098 8.61244 10.6746 9.30005 12 9.30005ZM7.68253 13.9984C7.86561 15.5201 8.80861 16.7319 10.1725 17.3503C10.7502 17.5415 11.3401 17.7002 11.9 17.7002C12.5388 17.7002 13.1089 17.6072 13.5646 17.3793L13.5799 17.3717L13.5954 17.3648C15.0166 16.7332 15.997 15.3697 16.1336 13.8222C14.9673 14.7095 13.7399 15.3001 12 15.3001C10.404 15.3001 8.94851 14.806 7.68253 13.9984ZM13.25 19.0644C12.7968 19.1649 12.3371 19.2002 11.9 19.2002C11.5039 19.2002 11.1149 19.1465 10.75 19.0682V19.4501C10.75 20.1359 11.3142 20.7001 12 20.7001C12.6858 20.7001 13.25 20.1359 13.25 19.4501V19.0644Z" fill="black"/>
</svg>
